source/icons/icon-cat-slim.svg

<svg width="70" height="97" viewBox="0 0 70 97" fill="none" xmlns="http://www.w3.org/2000/svg">
<g clip-path="url(#clip0_94552_4002)">
<path d="M54.84 0H54.46C53.818 0.362938 53.307 0.919413 53 1.59C52.4377 2.67211 52.0047 3.81665 51.71 5C51.6468 5.35582 51.4671 5.68054 51.1992 5.92311C50.9313 6.16567 50.5903 6.31232 50.23 6.34C49.1279 6.52999 48.0837 6.96931 47.1773 7.62443C46.2709 8.27955 45.5262 9.13313 45 10.12C44.2766 11.4013 43.6579 12.739 43.15 14.12C41.73 17.8 40.64 21.6 39.3 25.31C38.67 27 38.64 27 36.74 27C34.47 27 34.63 26.65 34.6 29.15C34.6 29.94 34.84 30.34 35.68 30.3C35.94 30.3 36.33 30.17 36.43 30.51C36.53 30.85 36.19 31 35.99 31.2C34.8043 32.4036 33.3037 33.2492 31.66 33.64C29.76 34.15 27.82 34.55 25.97 35.17C21.22 36.76 16.83 38.98 13.41 42.74C11.4103 45.0754 9.80885 47.7242 8.67 50.58C5 59.22 3.22 68.32 1.84 77.51C1.19 81.82 0.73 86.15 0.38 90.51C0.2 92.65 0 94.82 0 97H33.33C33.3853 96.5599 33.3051 96.1133 33.1 95.72C32.7794 94.9221 32.2586 94.2204 31.5877 93.6827C30.9167 93.1449 30.1185 92.7892 29.27 92.65C28.57 92.49 28.49 92.28 28.92 91.73C29.6214 90.7939 30.159 89.7458 30.51 88.63C32.14 83.82 32.77 78.8 33.56 73.83C34.0063 70.0338 35.1739 66.3579 37 63C38.4244 60.5284 40.3243 58.3634 42.59 56.63C43.42 56 43.45 56 43.59 57.07C43.69 57.78 43.71 58.51 43.76 59.23C44.0601 63.9544 43.9999 68.6948 43.58 73.41C43.2024 77.0649 43.1522 80.7462 43.43 84.41C43.8275 88.6636 44.5869 92.8755 45.7 97H59C58.8264 95.9175 58.328 94.9132 57.5708 94.1203C56.8136 93.3274 55.8334 92.7833 54.76 92.56C53.5066 92.3608 52.2252 92.429 51 92.76C50.4 92.9 50.15 92.76 50.1 92.11C49.6863 86.8159 50.0229 81.4899 51.1 76.29C52.4338 70.287 53.4552 64.2189 54.16 58.11C54.4224 55.643 55.1992 53.2584 56.44 51.11C57.63 48.99 58.67 46.79 59.84 44.66C60.3045 43.8855 60.5841 43.0143 60.657 42.1141C60.7298 41.2139 60.594 40.3091 60.26 39.47C59.99 38.76 59.73 38.04 59.4 37.36C58.4 35.41 57.4 33.48 56.48 31.51C55.99 30.51 56.1 30.39 57.19 30.36C58.82 30.36 58.82 30.36 58.85 28.72C58.85 28.5 58.85 28.28 58.85 28.06C58.85 27.37 58.59 26.99 57.85 27.06C57.35 27.06 56.85 27.06 56.33 27.06C55.64 27.06 55.44 26.77 55.61 26.06C55.9473 24.9058 56.611 23.8737 57.5211 23.0877C58.4312 22.3018 59.549 21.7956 60.74 21.63C62.9557 21.4379 65.1878 21.5829 67.36 22.06C67.6107 22.139 67.8823 22.1161 68.1162 21.9963C68.3502 21.8766 68.5275 21.6695 68.61 21.42C69.01 20.42 69.45 19.42 69.9 18.42C70.002 18.2426 70.0471 18.0381 70.0292 17.8343C70.0113 17.6304 69.9313 17.437 69.8 17.28C66.6 13.22 63.13 9.43 58.4 7C58.1715 6.90163 57.9712 6.7476 57.8175 6.55196C57.6638 6.35633 57.5615 6.12531 57.52 5.88C57.2523 4.45051 56.8264 3.05525 56.25 1.72C55.9795 1.00861 55.4845 0.404782 54.84 0V0Z" fill="black"/>
</g>
<defs>
<clipPath id="clip0_94552_4002">
<rect width="70" height="97" fill="white"/>
</clipPath>
</defs>
</svg>

<svg viewBox="0 0 70 97" fill="none" xmlns="http://www.w3.org/2000/svg"><g clip-path="url(#a)"><path d="M54.84 0h-.38a3.5 3.5 0 0 0-1.46 1.59c-.56 1.08-1 2.23-1.29 3.41a1.63 1.63 0 0 1-1.48 1.34 7.34 7.34 0 0 0-5.23 3.78 27.31 27.31 0 0 0-1.85 4c-1.42 3.68-2.51 7.48-3.85 11.19-.63 1.69-.66 1.69-2.56 1.69-2.27 0-2.11-.35-2.14 2.15 0 .79.24 1.19 1.08 1.15.26 0 .65-.13.75.21.1.34-.24.49-.44.69a9 9 0 0 1-4.33 2.44c-1.9.51-3.84.91-5.69 1.53-4.75 1.59-9.14 3.81-12.56 7.57a28 28 0 0 0-4.74 7.84c-3.67 8.64-5.45 17.74-6.83 26.93-.65 4.31-1.11 8.64-1.46 13-.18 2.14-.38 4.31-.38 6.49h33.33a2.1 2.1 0 0 0-.23-1.28 5 5 0 0 0-3.83-3.07c-.7-.16-.78-.37-.35-.92.7-.94 1.24-1.98 1.59-3.1 1.63-4.81 2.26-9.83 3.05-14.8a30 30 0 0 1 3.44-10.83 21.6 21.6 0 0 1 5.59-6.37c.83-.63.86-.63 1 .44.1.71.12 1.44.17 2.16.3 4.72.24 9.46-.18 14.18a61.67 61.67 0 0 0-.15 11c.4 4.25 1.16 8.47 2.27 12.59h13.3a5.41 5.41 0 0 0-4.24-4.44 9 9 0 0 0-3.76.2c-.6.14-.85 0-.9-.65a56.35 56.35 0 0 1 1-15.82c1.33-6 2.36-12.07 3.06-18.18a17.75 17.75 0 0 1 2.28-7c1.19-2.12 2.23-4.32 3.4-6.45a5.87 5.87 0 0 0 .42-5.19c-.27-.71-.53-1.43-.86-2.11-1-1.95-2-3.88-2.92-5.85-.49-1-.38-1.12.71-1.15 1.63 0 1.63 0 1.66-1.64v-.66c0-.69-.26-1.07-1-1h-1.52c-.69 0-.89-.29-.72-1a6.24 6.24 0 0 1 5.13-4.43 22 22 0 0 1 6.62.43 1 1 0 0 0 1.25-.64c.4-1 .84-2 1.29-3a1 1 0 0 0-.1-1.14c-3.2-4.06-6.67-7.85-11.4-10.28a1.49 1.49 0 0 1-.88-1.12 19.6 19.6 0 0 0-1.27-4.16 3.5 3.5 0 0 0-1.41-1.72Z" fill="#000"/></g><defs><clipPath id="a"><path fill="#fff" d="M0 0h70v97h-70z"/></clipPath></defs></svg>
